assets/svg/icon_2fa_googleauth.svg

<svg width="24" height="24" viewBox="0 0 24 24" fill="none" xmlns="http://www.w3.org/2000/svg">
<path d="M11.2688 10.6323H9.54099L7.01913 6.25104C6.60588 5.53357 6.85098 4.61528 7.56703 4.20116C7.80251 4.06467 8.05972 4 8.31372 4C8.83064 4 9.33366 4.26905 9.61082 4.7507L12.1327 9.1313L11.2688 10.6323Z" fill="#FCBC05"/>
<path d="M16.6988 20.066C15.9835 20.4804 15.0679 20.2342 14.6543 19.5164L12.1325 15.1358L9.61062 19.5164C9.19737 20.2339 8.28217 20.4804 7.56683 20.066C7.08697 19.788 6.81836 19.2834 6.81836 18.765C6.81836 18.5102 6.88284 18.2523 7.01893 18.0154L9.54079 13.6348H14.7249L17.2467 18.0154C17.66 18.7335 17.4142 19.6515 16.6988 20.066Z" fill="#E94335"/>
<path d="M21.2629 12.1332C21.2629 12.9622 20.5928 13.6343 19.7663 13.6343H14.7229L13.8587 12.1332L12.9951 10.6326L12.1309 9.1315L14.6527 4.75091C15.066 4.03272 15.9815 3.78689 16.6972 4.20137C17.4126 4.61549 17.6584 5.53377 17.2451 6.25124L14.7229 10.6329H19.7663C20.5931 10.6329 21.2629 11.3046 21.2629 12.1332Z" fill="#1973E8"/>
<path d="M11.2681 10.6328L10.4039 12.1335L9.54032 13.6346H4.49623C3.6701 13.6346 3 12.9625 3 12.1335C3 11.7194 3.16708 11.3442 3.43818 11.0723C3.70929 10.8011 4.08263 10.6328 4.49623 10.6328H11.2681Z" fill="#34A853"/>
<path d="M14.7248 13.6337H9.54102L10.4046 12.1326L11.2688 10.6323L12.1327 9.13086L12.997 10.6323L13.8605 12.1326L14.7248 13.6337Z" fill="#174FA7"/>
</svg>

<svg xmlns="http://www.w3.org/2000/svg" width="24" height="24" fill="none"><path fill="#FCBC05" d="M11.269 10.632H9.54L7.019 6.251A1.503 1.503 0 0 1 8.314 4c.517 0 1.02.269 1.297.75l2.522 4.381z"/><path fill="#E94335" d="M16.699 20.066a1.495 1.495 0 0 1-2.045-.55l-2.521-4.38-2.522 4.38a1.494 1.494 0 0 1-2.793-.751 1.5 1.5 0 0 1 .2-.75l2.523-4.38h5.184l2.522 4.38a1.504 1.504 0 0 1-.548 2.051"/><path fill="#1973E8" d="M21.263 12.133c0 .83-.67 1.501-1.497 1.501h-5.043l-.864-1.5-.864-1.501-.864-1.501 2.522-4.381a1.494 1.494 0 0 1 2.044-.55c.716.414.961 1.333.548 2.05l-2.522 4.382h5.043c.827 0 1.497.672 1.497 1.5"/><path fill="#34A853" d="m11.268 10.633-.864 1.5-.864 1.502H4.496A1.5 1.5 0 0 1 3 12.134a1.5 1.5 0 0 1 1.496-1.501z"/><path fill="#174FA7" d="M14.725 13.634H9.54l.864-1.501.864-1.5.864-1.502.864 1.501.864 1.5z"/></svg>
